src/16/actions/office-chart-pie.svg

<svg xmlns="http://www.w3.org/2000/svg" viewBox="0 0 16 16">
  <defs id="defs3051">
    <style type="text/css" id="current-color-scheme">
      .ColorScheme-Text {
        color:#5d656b;
      }
      </style>
  </defs>
 <path style="fill:currentColor;fill-opacity:1;stroke:none" 
     d="M 8 2 A 6.0000019 6.0000148 0 0 0 2 8 A 6.0000019 6.0000148 0 0 0 8 14 A 6.0000019 6.0000148 0 0 0 14 8 A 6.0000019 6.0000148 0 0 0 8 2 z M 8 3 L 8 8 L 13 8 A 5 5 0 0 1 8 13 A 5 5 0 0 1 3 8 A 5 5 0 0 1 8 3 z "
     class="ColorScheme-Text"
     />
</svg>

<svg xmlns="http://www.w3.org/2000/svg" viewBox="0 0 16 16"><path d="M8 2a6 6 0 0 0-6 6 6 6 0 0 0 6 6 6 6 0 0 0 6-6 6 6 0 0 0-6-6zm0 1v5h5a5 5 0 0 1-5 5 5 5 0 0 1-5-5 5 5 0 0 1 5-5z" fill="currentColor" color="#5d656b"/></svg>
